usr/share/icons/biglinux-icons-material/scalable/apps/fcitx.svg

<svg width="24" height="24" viewBox="0 0 24 24" fill="none" xmlns="http://www.w3.org/2000/svg">
<path fill-rule="evenodd" clip-rule="evenodd" d="M20.4454 20.4923C19.7199 21.2136 18.8373 21.7649 17.7978 22.1463C16.2531 22.6682 14.6647 22.943 13.0325 22.9706C11.1966 23.0661 9.37913 22.9287 7.57997 22.5585C4.26839 21.8208 2.22559 19.8018 1.45158 16.5017C1.12311 15.0161 0.974199 13.5124 1.00483 11.9906C0.968176 10.3724 1.14 8.77709 1.52031 7.20471C1.91227 5.71413 2.57199 4.49742 3.49945 3.55456L17.7795 3.55456C19.2519 3.55456 20.4454 4.74813 20.4454 6.22048V20.4923Z" fill="#498CD8"/>
<path opacity="0.625" fill-rule="evenodd" clip-rule="evenodd" d="M20.4921 20.4454C21.076 19.8536 21.5563 19.1497 21.933 18.3336C22.3917 17.271 22.6895 16.1642 22.8265 15.0133C23.0096 13.3758 23.0478 11.7347 22.9411 10.09C22.8639 8.78021 22.6119 7.50549 22.185 6.26586C21.4386 4.2069 20.0525 2.76044 18.0269 1.9265C16.8085 1.46308 15.5484 1.18066 14.2467 1.07924C12.8111 0.977551 11.3755 0.973736 9.93969 1.06779C9.83043 1.0996 9.71588 1.11486 9.59604 1.11359C8.8536 1.17326 8.12049 1.29157 7.39669 1.46852C5.82056 1.84324 4.53985 2.52013 3.55456 3.49918V17.7795C3.55456 19.2519 4.74813 20.4454 6.22048 20.4454H20.4921Z" fill="#E5E5E5"/>
<path d="M11.7798 7.66781L9.49521 13.8614H14.0711L11.7798 7.66781ZM10.829 6.0098H12.739L17.4795 18.4541H15.7291L14.5969 15.2624H8.98621L7.85399 18.4541H6.07503L10.829 6.0098Z" fill="white"/>
</svg>

<svg xmlns="http://www.w3.org/2000/svg" width="24" height="24" fill="none"><path fill="#498CD8" fill-rule="evenodd" d="M20.445 20.492c-.725.722-1.608 1.273-2.647 1.654a15.624 15.624 0 0 1-4.765.825 21.423 21.423 0 0 1-5.453-.413c-3.312-.737-5.354-2.756-6.128-6.056a19.047 19.047 0 0 1-.447-4.511 18.491 18.491 0 0 1 .515-4.786c.392-1.49 1.052-2.708 1.98-3.65h14.28a2.666 2.666 0 0 1 2.665 2.665v14.272Z" clip-rule="evenodd"/><path fill="#E5E5E5" fill-rule="evenodd" d="M20.492 20.445a7.374 7.374 0 0 0 1.441-2.111c.459-1.063.756-2.17.893-3.32a27.94 27.94 0 0 0 .115-4.924 14.268 14.268 0 0 0-.756-3.824c-.746-2.06-2.133-3.506-4.158-4.34a13.537 13.537 0 0 0-3.78-.847 31.627 31.627 0 0 0-4.307-.011c-.11.032-.224.047-.344.046-.742.06-1.476.178-2.2.355-1.575.374-2.856 1.051-3.841 2.03v14.28a2.666 2.666 0 0 0 2.665 2.666h14.272Z" clip-rule="evenodd" opacity=".625"/><path fill="#fff" d="M11.78 7.668 9.495 13.86h4.576L11.78 7.668Zm-.951-1.658h1.91l4.74 12.444h-1.75l-1.132-3.192h-5.61l-1.133 3.192H6.075L10.829 6.01Z"/></svg>
